X:1218
T:Rovlåtar Valsen
Z:[[http://www.bluerose.karenlmyers.org/IncipitsLangdans1.html|Karen Myers (#1218)]]
M:3/4
L:1/8
R:Långdans
K:Am
(ef) |: e2 d2 f2 | e2 d2 c2 | TB2 (A2 G2) | A4 ef | e3 (d ef) | g3 (f ed) |
f2 (e2 d2) |1 e4 (ef) :|2 e4 e2 |: a2 e2 ea | g2 e2 c2 | f2 d2 B2 |
c4 TB2 | A3 (B cd) | e2 e2 d2 | c2 B2 G2 |1 A4 e2 :|2 A4 z2 |]
